X:3
T:Bantry Bay Hornpipe
S:Bernie Waugh
R:Reel
M:4/4
L:1/8
K:G
|:GA|\
"G"BABG EG(3DEF|G2~G2 GABG|"Am"EAAB cBAG|(3ABAGB "D"A2AB|
"C"~c2ec "E7"~B2dB|"Am"ABAG (3EFEDc|"C"~BABG "D"AF(3DEF|"G"(3GEDB,D G2:|
|:AB|\
"G"dBeBdBGB|"Em"e2~e2 e2ef|"C"g2ed BGBd|"D"(3gagfa "G"g2ef|
"G(Bm)"gbgf efed|"Em"~BABG E2Dc|"C"~BABG "D"AF(3DEF|"G"(3GEDB,D G2:|

